Rust/lightroom_img_editor/metadata/DSC_7867.xmp
<x:xmpmeta xmlns:x="adobe:ns:meta/" x:xmptk="Adobe XMP Core 5.6-c140 79.160451, 2017/05/06-01:08:21        ">
 <rdf:RDF xmlns:rdf="http://www.w3.org/1999/02/22-rdf-syntax-ns#">
  <rdf:Description rdf:about=""
    xmlns:tiff="http://ns.adobe.com/tiff/1.0/"
    xmlns:exif="http://ns.adobe.com/exif/1.0/"
    xmlns:xmp="http://ns.adobe.com/xap/1.0/"
    xmlns:aux="http://ns.adobe.com/exif/1.0/aux/"
    xmlns:exifEX="http://cipa.jp/exif/1.0/"
    xmlns:photoshop="http://ns.adobe.com/photoshop/1.0/"
    xmlns:xmpMM="http://ns.adobe.com/xap/1.0/mm/"
    xmlns:stEvt="http://ns.adobe.com/xap/1.0/sType/ResourceEvent#"
    xmlns:dc="http://purl.org/dc/elements/1.1/"
    xmlns:crd="http://ns.adobe.com/camera-raw-defaults/1.0/"
    xmlns:crs="http://ns.adobe.com/camera-raw-settings/1.0/"
   tiff:Make="NIKON CORPORATION"
   tiff:Model="NIKON D3300"
   tiff:Orientation="1"
   exif:ExifVersion="0231"
   exif:ExposureTime="1/2000"
   exif:ShutterSpeedValue="10965784/1000000"
   exif:FNumber="56/10"
   exif:ApertureValue="4970854/1000000"
   exif:ExposureProgram="1"
   exif:SensitivityType="2"
   exif:ExposureBiasValue="0/6"
   exif:MaxApertureValue="38/10"
   exif:MeteringMode="5"
   exif:LightSource="0"
   exif:FocalLength="270/10"
   exif:SensingMethod="2"
   exif:FileSource="3"
   exif:SceneType="1"
   exif:FocalLengthIn35mmFilm="40"
   exif:CustomRendered="0"
   exif:ExposureMode="1"
   exif:WhiteBalance="0"
   exif:SceneCaptureType="0"
   exif:GainControl="1"
   exif:Contrast="0"
   exif:Saturation="0"
   exif:Sharpness="0"
   exif:SubjectDistanceRange="0"
   exif:DigitalZoomRatio="1/1"
   exif:FocalPlaneXResolution="84928060/32768"
   exif:FocalPlaneYResolution="84928060/32768"
   exif:FocalPlaneResolutionUnit="3"
   exif:DateTimeOriginal="2020-07-02T12:49:55.70"
   xmp:CreatorTool="Ver.1.00"
   xmp:ModifyDate="2020-07-02T12:49:55.70"
   xmp:CreateDate="2020-07-02T12:49:55.70"
   xmp:MetadataDate="2021-03-29T15:21:38+02:00"
   aux:SerialNumber="6240886"
   aux:LensInfo="180/10 2700/10 35/10 63/10"
   aux:Lens="TAMRON AF 18-270mm F3.5-6.3 Di II VC LD Aspherical IF Macro B003N"
   aux:LensID="245"
   aux:ImageNumber="20844"
   aux:ApproximateFocusDistance="237/1"
   exifEX:LensModel="TAMRON AF 18-270mm F3.5-6.3 Di II VC LD Aspherical IF Macro B003N"
   photoshop:DateCreated="2020-07-02T12:49:55.70"
   photoshop:SidecarForExtension="NEF"
   photoshop:EmbeddedXMPDigest="01F5B32CAED764DC3DCAD90E2D1E42A4"
   xmpMM:DocumentID="58E734A62247D07B79B9C5CB97DCA9BA"
   xmpMM:OriginalDocumentID="58E734A62247D07B79B9C5CB97DCA9BA"
   xmpMM:InstanceID="xmp.iid:af94736c-ac8d-4e77-b5d5-a808d9e00974"
   dc:format="image/x-nikon-nef"
   crd:CameraProfile="Camera STANDARD"
   crd:LookName=""
   crs:Version="12.4"
   crs:ProcessVersion="11.0"
   crs:WhiteBalance="Custom"
   crs:Temperature="5210"
   crs:Tint="+6"
   crs:Saturation="0"
   crs:Sharpness="40"
   crs:LuminanceSmoothing="0"
   crs:ColorNoiseReduction="25"
   crs:VignetteAmount="0"
   crs:ShadowTint="0"
   crs:RedHue="0"
   crs:RedSaturation="0"
   crs:GreenHue="0"
   crs:GreenSaturation="0"
   crs:BlueHue="0"
   crs:BlueSaturation="0"
   crs:Vibrance="40"
   crs:HueAdjustmentRed="0"
   crs:HueAdjustmentOrange="-20"
   crs:HueAdjustmentYellow="0"
   crs:HueAdjustmentGreen="-60"
   crs:HueAdjustmentAqua="0"
   crs:HueAdjustmentBlue="-20"
   crs:HueAdjustmentPurple="0"
   crs:HueAdjustmentMagenta="0"
   crs:SaturationAdjustmentRed="0"
   crs:SaturationAdjustmentOrange="0"
   crs:SaturationAdjustmentYellow="0"
   crs:SaturationAdjustmentGreen="0"
   crs:SaturationAdjustmentAqua="0"
   crs:SaturationAdjustmentBlue="16"
   crs:SaturationAdjustmentPurple="0"
   crs:SaturationAdjustmentMagenta="0"
   crs:LuminanceAdjustmentRed="0"
   crs:LuminanceAdjustmentOrange="0"
   crs:LuminanceAdjustmentYellow="0"
   crs:LuminanceAdjustmentGreen="0"
   crs:LuminanceAdjustmentAqua="0"
   crs:LuminanceAdjustmentBlue="0"
   crs:LuminanceAdjustmentPurple="0"
   crs:LuminanceAdjustmentMagenta="0"
   crs:SplitToningShadowHue="0"
   crs:SplitToningShadowSaturation="0"
   crs:SplitToningHighlightHue="0"
   crs:SplitToningHighlightSaturation="0"
   crs:SplitToningBalance="0"
   crs:ParametricShadows="0"
   crs:ParametricDarks="0"
   crs:ParametricLights="0"
   crs:ParametricHighlights="0"
   crs:ParametricShadowSplit="25"
   crs:ParametricMidtoneSplit="50"
   crs:ParametricHighlightSplit="75"
   crs:SharpenRadius="+1.0"
   crs:SharpenDetail="25"
   crs:SharpenEdgeMasking="0"
   crs:PostCropVignetteAmount="0"
   crs:GrainAmount="0"
   crs:ColorNoiseReductionDetail="50"
   crs:ColorNoiseReductionSmoothness="50"
   crs:LensProfileEnable="0"
   crs:LensManualDistortionAmount="0"
   crs:PerspectiveVertical="0"
   crs:PerspectiveHorizontal="0"
   crs:PerspectiveRotate="0.0"
   crs:PerspectiveScale="100"
   crs:PerspectiveAspect="0"
   crs:PerspectiveUpright="0"
   crs:PerspectiveX="0.00"
   crs:PerspectiveY="0.00"
   crs:AutoLateralCA="0"
   crs:Exposure2012="-0.4"
   crs:Contrast2012="-40"
   crs:Highlights2012="0"
   crs:Shadows2012="0"
   crs:Whites2012="-28"
   crs:Blacks2012="-28"
   crs:Clarity2012="0"
   crs:DefringePurpleAmount="0"
   crs:DefringePurpleHueLo="30"
   crs:DefringePurpleHueHi="70"
   crs:DefringeGreenAmount="0"
   crs:DefringeGreenHueLo="40"
   crs:DefringeGreenHueHi="60"
   crs:Dehaze="0"
   crs:Texture="0"
   crs:ToneMapStrength="0"
   crs:ConvertToGrayscale="False"
   crs:OverrideLookVignette="False"
   crs:ToneCurveName="Medium Contrast"
   crs:ToneCurveName2012="Linear"
   crs:CameraProfile="Adobe Standard"
   crs:CameraProfileDigest="9B7500593B80F53EC60CBB8FACBCF944"
   crs:LensProfileSetup="LensDefaults"
   crs:UprightVersion="151388160"
   crs:UprightCenterMode="0"
   crs:UprightCenterNormX="0.5"
   crs:UprightCenterNormY="0.5"
   crs:UprightFocalMode="0"
   crs:UprightFocalLength35mm="35"
   crs:UprightPreview="False"
   crs:UprightTransformCount="6"
   crs:UprightFourSegmentsCount="0"
   crs:HasSettings="True"
   crs:CropTop="0"
   crs:CropLeft="0"
   crs:CropBottom="1"
   crs:CropRight="1"
   crs:CropAngle="0"
   crs:CropConstrainToWarp="0"
   crs:HasCrop="True"
   crs:AlreadyApplied="False">
   <exif:ISOSpeedRatings>
    <rdf:Seq>
     <rdf:li>400</rdf:li>
    </rdf:Seq>
   </exif:ISOSpeedRatings>
   <exif:Flash
    exif:Fired="False"
    exif:Return="0"
    exif:Mode="0"
    exif:Function="False"
    exif:RedEyeMode="False"/>
   <xmpMM:History>
    <rdf:Seq>
     <rdf:li
      stEvt:action="saved"
      stEvt:instanceID="xmp.iid:9c0d89d3-1096-43ce-b6da-21ccf93d662b"
      stEvt:when="2021-03-27T18:08:35+01:00"
      stEvt:softwareAgent="Adobe Photoshop Camera Raw 12.4 (Macintosh)"
      stEvt:changed="/metadata"/>
     <rdf:li
      stEvt:action="saved"
      stEvt:instanceID="xmp.iid:af94736c-ac8d-4e77-b5d5-a808d9e00974"
      stEvt:when="2021-03-29T15:21:38+02:00"
      stEvt:softwareAgent="Adobe Photoshop Camera Raw 12.4 (Macintosh)"
      stEvt:changed="/metadata"/>
    </rdf:Seq>
   </xmpMM:History>
   <crs:ToneCurve>
    <rdf:Seq>
     <rdf:li>0, 0</rdf:li>
     <rdf:li>32, 22</rdf:li>
     <rdf:li>64, 56</rdf:li>
     <rdf:li>128, 128</rdf:li>
     <rdf:li>192, 196</rdf:li>
     <rdf:li>255, 255</rdf:li>
    </rdf:Seq>
   </crs:ToneCurve>
   <crs:ToneCurveRed>
    <rdf:Seq>
     <rdf:li>0, 0</rdf:li>
     <rdf:li>255, 255</rdf:li>
    </rdf:Seq>
   </crs:ToneCurveRed>
   <crs:ToneCurveGreen>
    <rdf:Seq>
     <rdf:li>0, 0</rdf:li>
     <rdf:li>255, 255</rdf:li>
    </rdf:Seq>
   </crs:ToneCurveGreen>
   <crs:ToneCurveBlue>
    <rdf:Seq>
     <rdf:li>0, 0</rdf:li>
     <rdf:li>255, 255</rdf:li>
    </rdf:Seq>
   </crs:ToneCurveBlue>
   <crs:ToneCurvePV2012>
    <rdf:Seq>
     <rdf:li>0, 0</rdf:li>
     <rdf:li>255, 255</rdf:li>
    </rdf:Seq>
   </crs:ToneCurvePV2012>
   <crs:ToneCurvePV2012Red>
    <rdf:Seq>
     <rdf:li>0, 0</rdf:li>
     <rdf:li>255, 255</rdf:li>
    </rdf:Seq>
   </crs:ToneCurvePV2012Red>
   <crs:ToneCurvePV2012Green>
    <rdf:Seq>
     <rdf:li>0, 0</rdf:li>
     <rdf:li>255, 255</rdf:li>
    </rdf:Seq>
   </crs:ToneCurvePV2012Green>
   <crs:ToneCurvePV2012Blue>
    <rdf:Seq>
     <rdf:li>0, 0</rdf:li>
     <rdf:li>255, 255</rdf:li>
    </rdf:Seq>
   </crs:ToneCurvePV2012Blue>
   <crs:Look>
    <rdf:Description
     crs:Name="Adobe Color"
     crs:Amount="1.000000"
     crs:UUID="B952C231111CD8E0ECCF14B86BAA7077"
     crs:SupportsAmount="false"
     crs:SupportsMonochrome="false"
     crs:SupportsOutputReferred="false"
     crs:Copyright="© 2018 Adobe Systems, Inc.">
    <crs:Group>
     <rdf:Alt>
      <rdf:li xml:lang="x-default">Profiles</rdf:li>
     </rdf:Alt>
    </crs:Group>
    <crs:Parameters>
     <rdf:Description
      crs:Version="12.4"
      crs:ProcessVersion="11.0"
      crs:ConvertToGrayscale="False"
      crs:CameraProfile="Adobe Standard"
      crs:LookTable="E1095149FDB39D7A057BAB208837E2E1">
     <crs:ToneCurvePV2012>
      <rdf:Seq>
       <rdf:li>0, 0</rdf:li>
       <rdf:li>22, 16</rdf:li>
       <rdf:li>40, 35</rdf:li>
       <rdf:li>127, 127</rdf:li>
       <rdf:li>224, 230</rdf:li>
       <rdf:li>240, 246</rdf:li>
       <rdf:li>255, 255</rdf:li>
      </rdf:Seq>
     </crs:ToneCurvePV2012>
     <crs:ToneCurvePV2012Red>
      <rdf:Seq>
       <rdf:li>0, 0</rdf:li>
       <rdf:li>255, 255</rdf:li>
      </rdf:Seq>
     </crs:ToneCurvePV2012Red>
     <crs:ToneCurvePV2012Green>
      <rdf:Seq>
       <rdf:li>0, 0</rdf:li>
       <rdf:li>255, 255</rdf:li>
      </rdf:Seq>
     </crs:ToneCurvePV2012Green>
     <crs:ToneCurvePV2012Blue>
      <rdf:Seq>
       <rdf:li>0, 0</rdf:li>
       <rdf:li>255, 255</rdf:li>
      </rdf:Seq>
     </crs:ToneCurvePV2012Blue>
     </rdf:Description>
    </crs:Parameters>
    </rdf:Description>
   </crs:Look>
  </rdf:Description>
 </rdf:RDF>
</x:xmpmeta>

